X:1
T:Orientis Partibus
M:2/4
L:1/8
Q:120
C:anon. medieval carol
F:http://www.folkinfo.org/songs
K:F
FG AF | G_E F2 | cc dB | cc A2
w:O-ri-en-tis par-ti-bus ad-ven-ta-vit a-si-nus,
AG BA | GF A2 | cB AF | G_E F2||
w:pul-cher et for-tis-si-mus, Sar-ci-mis ap-tis-si-mus.
FG AG | F2 |]
w:Heh! Sir Ass, oh heh!